X: 550
T: Off she goes
%R: jig
B: "Twenty Four Country Dances for the Year 1805", Tho. Preston, ed. p.235 #2
F: http://folkopedia.efdss.org/images/archive/0/02/20121211105513%21Preston_24_1805.PDF
Z: 2014 John Chambers <jc:trillian.mit.edu>
M: 6/8
L: 1/8
K: D
|:\
F2A G2B | ABc d3 | F2A G2B | AGF E3 |\
F2A G2B | ABc d3 | faf g2f | edc d3 :|
|:\
(f/g/a)f d2f | (g/a/b)g e2g | (f/g/a)f def | ecA efg |\
(f/g/a)f d2f | (g/a/b)g e2g | faf g2f | edc d3 :|
%%begintext align
%% Cast off 2 Cu. back again. lead down the middle
%% up again. hands 4 round right and left at top.
%%endtext

%%sep 1 1 500
%%sep 1 1 500
